X: 112
T: Cantantibus organis – Adagio
C: Franciszek Walczyński
%%abc-version 2.0
%%abcx-abcm2ps-target-version 5.9.1 (29 Sep 2008)
%%abc-creator hum2abc beta
%%abcx-conversion-date 2021/10/04 07:38:42
%%abc-edited-by Andrzej Borzym
%%abc-edited-by Krzysztof Stępień
%%abcx-initial-encoding-date 2021-07-27
%%humdrum-veritas 755938618
%%humdrum-veritas-data 1115254166
%%linebreak <none>
%%barnumbers 0
L: 1/4
M: 3/4
N: Derived from pl-kozmzk--mzk-m-346--013_walczynski-franciszek--cantantibus-organis-adagio.krn
Q: "Adagio."
%%staves {1 2}
V: 1 clef=treble
V: 2 clef=bass
K: D
[V:1] [A/F/][B/G/][AF][GE]- | 
[V:2] zzC- & xxA, | 
[V:1] [GE][FD]z | 
[V:2] CB,z & ^A,B,x | 
[V:1] F/G/FE- & zzC- | 
[V:2] zzG,- & xx^A,, | 
[V:1] EDz & CDx | 
[V:2] G,F,z & B,,2z | 
[V:1] z3 & z3 | 
[V:2] E,/F,/E,D & z3 | 
[V:1] A/B/c2 & E3 | 
[V:2] C/^G,/A,2- & zz=G, | 
[V:1] d/A/GF & D3- | 
[V:2] A,3 & F,E,D, | 
[V:1] !accent!BEz & D2x | 
[V:2] B,2z & G,,^G,,z | 
[V:1] F/G/FE & D2C- | 
[V:2] A,/B,/A,G,- & A,,3 | 
[V:1] !accent!EDz & CDx | 
[V:2] G,F,z & D,2z | 
[V:1] z3 & z3 | 
[V:2] z3 & A,,/B,,/A,,G, | 
[V:1] D/E/F2 & A,3 | 
[V:2] z3 & F,/C,/D,2 | 
[V:1] zzE- & xxC- | 
[V:2] zzG,- & A,,/B,,/A,,2 | 
[V:1] !accent!EDz & CDx | 
[V:2] G,F,z & .^A,,.B,,z | 
[V:1] zzA- & zzC | 
[V:2] zzG, & =A,,/B,,/A,,2 | 
[V:1] A/>B/A2 & Dzz | 
[V:2] F,zz[K:clef=treble] & D,zz | 
[V:1] [A/F/][B/G/][AF][fd]- | 
[V:2] D3 | 
[V:1] [f3d3F3] |]  
[V:2] A3 & !fermata!D3 |]  


